X: 3365
T: THAMES HORNPIPE
R: Hornpipe.
%R: hornpipe, reel
B: James Kerr "Merry Melodies" v.3 p.40 #365
Z: 2016 John Chambers <jc:trillian.mit.edu>
M: C
L: 1/8
K: Bb
(fe) |\
dbfd cgec | BfdB AecA |\
BFGA Bcde | =efgf agf_e |\
dbfd cgec | BfdB AecA |\
BFGA Bcde | =efga b2 H:|
|: b2 |\
afcA BdcB | AFAc fagf |\
=eceg bgeg | f=efg a2b2 |\
afcA BdcB | AFAc fagf |\
=eceg bgeg | f2a2 "_D.C."f2 :|

%%center TUNES FOR COUNTRY DANCES, FLIRTATION, &c.

%%sep 1 1 500
%%sep 1 1 500

